X:1
T:No Dying There
T:No Dying There
T:Francis Augustus Blackmer
T:Francis Augustus Blackmer, 1892
T:Public Domain Courtesy of the Cyber Hymnal™
C:Francis Augustus Blackmer
Z:Public Domain
Z:Courtesy of the Cyber Hymnal™
%%score ( 1 2 ) ( 3 4 )
L:1/8
Q:1/4=93
M:2/4
K:Bb
V:1 treble 
V:2 treble 
V:3 bass 
V:4 bass 
V:1
 [DF]2 [EG][DF] | [DF][CE] [CE]2 | [EG]2 [EA][EG] | [EG][DF] [DF]2 | [Fd]2 [Fc][FB] | %5
w: 1.~A land by|faith I see,|Where saints shall|ev- er be,|Free from mor-|
w: 2.~There friends shall|meet a- gain,|In hap- pi-|ness to reign,|While through that|
w: 3.~There sor- row|can- not stay;|There tears are|wiped a- way,|One bright, e-|
 [FA][EG] [EG]2 | (FB) [CA]<[Ec] | !fermata![DB]3 ||"^Refrain" [DF] | [EG]2 [EG]2 | F4- | F4- | %12
w: tal- i- ty,|No * dy- ing|there.|||||
w: blest do- main,|No * dy- ing|there.|No|dy- ing|there,||
w: tern- al day,|No * dy- ing|there.|||||
 [DF]3 [DB] | [Ec]2 [Ec]2 | B4- | B4- | [DB]3 z | [Fd]2 [Fc][FB] | [FA][EG] [EG]2 | %19
w: |||||||
w: ~ ~|No dy-|ing|||there. In that|fair, heav’n- ly|
w: |||||||
 (FB) [CA]<[Ec] | !fermata![DB]3 |] %21
w: ||
w: land, * No dy-|ing|
w: ||
V:2
 x4 | x4 | x4 | x4 | x4 | x4 | D2 x2 | x3 || x | x4 | D3 D | E2 E2 | x4 | x4 | D3 D | E2 E2 | x4 | %17
 x4 | x4 | D2 x2 | x3 |] %21
V:3
 [B,,B,]2 [B,,B,][B,,B,] | [F,B,][F,A,] [F,A,]2 | [F,A,]2 [F,A,][F,A,] | [B,,B,][B,,B,] [B,,B,]2 | %4
w: ~ ~ ~|~ ~ ~|~ ~ ~|~ ~ ~|
 [B,,B,]2 [C,A,][D,B,] | [E,B,][E,B,] [E,B,]2 | (B,F,) F,<F, | !fermata![B,,F,]3 || z | z4 | %10
w: ~ ~ ~|~ ~ ~|~ * ~ ~|~|||
 z3 [B,,B,] | [F,C]2 [F,C]2 | [B,,C]3 z | z4 | z3 [B,,F,] | [B,,G,]2 [B,,G,]2 | [B,,F,]3 z | %17
w: No|dy- ing|there||No|dy- ing|there.|
 [B,,B,]2 [C,A,][D,B,] | [E,B,][E,B,] [E,B,]2 | (B,F,) F,<F, | !fermata![B,,F,]3 |] %21
w: ||||
V:4
 x4 | x4 | x4 | x4 | x4 | x4 | F,2 F,<F, | x3 || x | x4 | x4 | x4 | x4 | x4 | x4 | x4 | x4 | x4 | %18
 x4 | F,2 F,<F, | x3 |] %21

